X: 42930
T: William Durette's Clog
R: barndance
M: 4/4
K: Dmajor
|:(3gfe|d>AF>A d>fe>d|c>AG>E B2 c>B|A>ce>g b>ag>e|1 d>ef>d A2:|2 d>fe>c d2||
|:f>g|(3aba ^g>a b>af>d|e>fg>e B2 c>B|A>ce>g b>ag>e|1 d>e (3fed A2:|2 d2 f2 d2||

